X: 21751
T: THE COMET HORNPIPE
C: By Wm. Findlay
R: hornpipe
B: K\"ohler's Violin Repository, v.2, 1885 p.175 #1
F: http://www.archive.org/details/klersviolinrepos02rugg
Z: 2012 John Chambers <jc:trillian.mit.edu>
M: C|
L: 1/8
K: G
u((3DEF) |\
(G>D)E>F (G>A)B>c | (d>g)f>g (b>g)d>c | (B>g)d>B (a>g)f>e | dcfe (3ded (3cBA |
(G>D)E>F (G>A)B>c | (d>g)f>g (b>g)d>c | (B>g)d>B (e>c)A>F | G2G2G2 :|
|: u(B>c) |\
(d>B)d>g (b>g)d>c | (B>A)B>d (g>d)B>G | (F>G)A>B (c>d)e>f | gfag (3fed (3cBA |
(d>B)d>g (b>g)d>c | (B>A)B>d (g>d)B>G | (F>G)A>B (c>d)e>f | [g2B2][g2B2][g2B2] :|

%%sep 2 1 500

